app/assets/images/icons/socal-tw.svg

<svg width="120" height="120" viewBox="0 0 120 120" fill="none" xmlns="http://www.w3.org/2000/svg">
<path d="M117.723 24.1217C113.463 26.009 108.893 27.2889 104.092 27.8604C108.994 24.9244 112.747 20.2675 114.526 14.7355C109.927 17.4544 104.851 19.4287 99.4416 20.4989C95.1101 15.8781 88.949 13 82.1153 13C69.005 13 58.375 23.63 58.375 36.7332C58.375 38.5916 58.5847 40.4066 58.9897 42.1423C39.2627 41.1515 21.7703 31.7002 10.0628 17.3387C8.01626 20.8387 6.85204 24.917 6.85204 29.2704C6.85204 37.5069 11.0462 44.7744 17.4099 49.0263C13.5193 48.8962 9.86026 47.8259 6.6569 46.047V46.3435C6.6569 57.8413 14.8428 67.4372 25.6969 69.6212C23.7082 70.1563 21.6112 70.4528 19.4418 70.4528C17.9089 70.4528 16.4264 70.3009 14.9729 70.0116C17.9955 79.4485 26.7599 86.311 37.1442 86.4991C29.0234 92.8627 18.7838 96.6447 7.6621 96.6447C5.74586 96.6447 3.85837 96.529 2 96.3193C12.5071 103.066 24.9812 107 38.388 107C82.0579 107 105.929 70.8289 105.929 39.4595L105.849 36.3862C110.513 33.0596 114.548 28.8799 117.723 24.1217Z" fill="#010002"/>
</svg>

<svg width="120" height="120" fill="none" xmlns="http://www.w3.org/2000/svg"><path d="M117.723 24.122a47.423 47.423 0 0 1-13.631 3.738 23.842 23.842 0 0 0 10.434-13.124 47.853 47.853 0 0 1-15.084 5.763A23.672 23.672 0 0 0 82.115 13c-13.11 0-23.74 10.63-23.74 23.733 0 1.859.21 3.674.615 5.41C39.263 41.15 21.77 31.7 10.063 17.338A23.559 23.559 0 0 0 6.852 29.27c0 8.237 4.194 15.504 10.558 19.756a23.74 23.74 0 0 1-10.753-2.979v.297c0 11.497 8.186 21.093 19.04 23.277a24.047 24.047 0 0 1-6.255.832c-1.533 0-3.016-.152-4.47-.441 3.024 9.436 11.788 16.299 22.172 16.487-8.12 6.364-18.36 10.146-29.482 10.146-1.916 0-3.804-.116-5.662-.326C12.507 103.066 24.981 107 38.388 107c43.67 0 67.541-36.171 67.541-67.54l-.08-3.074a47.414 47.414 0 0 0 11.874-12.264z" fill="#010002"/></svg>
